konversation/themes/papirus/src/irc_halfop.svg

<?xml version="1.0" encoding="UTF-8" standalone="no"?>
<svg
   xmlns:dc="http://purl.org/dc/elements/1.1/"
   xmlns:cc="http://creativecommons.org/ns#"
   xmlns:rdf="http://www.w3.org/1999/02/22-rdf-syntax-ns#"
   xmlns:svg="http://www.w3.org/2000/svg"
   xmlns="http://www.w3.org/2000/svg"
   viewBox="0 0 16 16"
   id="svg2"
   version="1.1"
   width="16"
   height="16">
  <metadata
     id="metadata20">
    <rdf:RDF>
      <cc:Work
         rdf:about="">
        <dc:format>image/svg+xml</dc:format>
        <dc:type
           rdf:resource="http://purl.org/dc/dcmitype/StillImage" />
        <dc:title></dc:title>
      </cc:Work>
    </rdf:RDF>
  </metadata>
  <defs
     id="defs18" />
  <path
     style="opacity:1;fill:#5c616c;fill-opacity:1"
     d="M 7.5 1 C 5.567015 0.99999519 4.0000145 2.5669957 4 4.5 C 4.0000145 6.4330043 5.567015 8.0000053 7.5 8 C 9.4329853 8.0000053 10.999985 6.4330043 11 4.5 C 10.999985 2.5669957 9.4329853 0.99999519 7.5 1 z M 6 2 L 7 2 L 7 4 L 8 4 L 8 2 L 9 2 L 9 4 L 9 5 L 9 7 L 8 7 L 8 5 L 7 5 L 7 7 L 6 7 L 6 5 L 6 4 L 6 2 z "
     id="path4139" />
  <path
     style="opacity:1;fill:#5c616c;fill-opacity:1"
     d="M 7.5,9 C 3.6893477,9.0048 0.47634178,11.003572 0,15 l 7.5,0 7.5,0 C 14.523658,11.003572 11.310652,9.0048 7.5,9 Z"
     id="path4150" />
</svg>

<?xml version="1.0" encoding="UTF-8"?>
<svg id="svg2" width="16" height="16" version="1.1" viewBox="0 0 16 16" xmlns="http://www.w3.org/2000/svg" xmlns:cc="http://creativecommons.org/ns#" xmlns:dc="http://purl.org/dc/elements/1.1/" xmlns:rdf="http://www.w3.org/1999/02/22-rdf-syntax-ns#">
 <metadata id="metadata20">
  <rdf:RDF>
   <cc:Work rdf:about="">
    <dc:format>image/svg+xml</dc:format>
    <dc:type rdf:resource="http://purl.org/dc/dcmitype/StillImage"/>
    <dc:title/>
   </cc:Work>
  </rdf:RDF>
 </metadata>
 <path id="path4139" d="m7.5 1c-1.933-4.81e-6 -3.5 1.567-3.5 3.5 1.45e-5 1.933 1.567 3.5 3.5 3.5 1.933 5.3e-6 3.5-1.567 3.5-3.5-1.5e-5 -1.933-1.567-3.5-3.5-3.5zm-1.5 1h1v2h1v-2h1v2 1 2h-1v-2h-1v2h-1v-2-1-2z" fill="#5c616c"/>
 <path id="path4150" d="m7.5 9c-3.8107 0.0048-7.0237 2.0036-7.5 6h7.5 7.5c-0.47634-3.9964-3.6893-5.9952-7.5-6z" fill="#5c616c"/>
</svg>
